X:1823
T: Eunyssagh Vona (Vona's Delight)
O:england
M:4/4
L:1/8
K:G
D2|G3A B2AG|A3B c2BA|G3B d2BG|FADA FAD2|
G3A B2AG|A3B c2BA|BdBG AcAF|G2GF G2:|
Bc|d2dc Bcd2|c2cB ABc2|B2BA GABG|AGFE DEFD|
B2BA GABG|c2cB ABcA|BdBG AcAF|G2GF G2||


